comerce/app/images/vk.svg

<svg width="94" height="94" fill="none" xmlns="http://www.w3.org/2000/svg"><path d="M89 0H5a5 5 0 00-5 5v84a5 5 0 005 5h84a5 5 0 005-5V5a5 5 0 00-5-5zM74.869 52.943c2.562 2.5 5.271 4.854 7.572 7.617 1.018 1.22 1.978 2.48 2.709 3.899 1.041 2.024.101 4.247-1.713 4.366l-11.256-.003c-2.906.239-5.22-.931-7.172-2.918-1.555-1.585-3.001-3.277-4.5-4.914-.611-.673-1.259-1.306-2.025-1.806-1.534-.996-2.867-.692-3.748.909-.896 1.63-1.103 3.438-1.185 5.255-.125 2.655-.925 3.348-3.588 3.471-5.69.268-11.091-.596-16.108-3.463-4.429-2.53-7.854-6.104-10.838-10.146-5.816-7.883-10.27-16.536-14.27-25.437-.901-2.005-.242-3.078 1.967-3.119 3.676-.073 7.351-.063 11.022-.004 1.496.023 2.485.879 3.058 2.289 1.985 4.885 4.421 9.533 7.471 13.843.813 1.147 1.643 2.292 2.823 3.103 1.304.896 2.298.601 2.913-.854.393-.928.563-1.914.647-2.906.292-3.396.327-6.792-.177-10.175-.315-2.116-1.507-3.483-3.617-3.883-1.074-.204-.917-.602-.395-1.215.906-1.062 1.76-1.718 3.456-1.718l12.721-.002c2.006.392 2.452 1.292 2.725 3.311l.012 14.133c-.021.782.391 3.098 1.795 3.61 1.123.371 1.868-.53 2.54-1.244 3.048-3.235 5.22-7.056 7.167-11.009.857-1.743 1.6-3.549 2.32-5.356.533-1.337 1.367-1.995 2.875-1.971l12.246.013c.36 0 .729.004 1.086.063 2.062.355 2.627 1.243 1.99 3.257-1.004 3.163-2.959 5.799-4.871 8.441-2.043 2.825-4.224 5.557-6.252 8.396-1.858 2.604-1.708 3.912.6 6.167z" fill="black"/></svg>

<svg width="94" height="94" viewBox="0 0 94 94" fill="none" xmlns="http://www.w3.org/2000/svg">
<path d="M89 0H5C2.238 0 0 2.239 0 5V89C0 91.761 2.238 94 5 94H89C91.762 94 94 91.761 94 89V5C94 2.239 91.762 0 89 0ZM74.869 52.943C77.431 55.443 80.14 57.797 82.441 60.56C83.459 61.78 84.419 63.04 85.15 64.459C86.191 66.483 85.251 68.706 83.437 68.825L72.181 68.822C69.275 69.061 66.961 67.891 65.009 65.904C63.454 64.319 62.008 62.627 60.509 60.99C59.898 60.317 59.25 59.684 58.484 59.184C56.95 58.188 55.617 58.492 54.736 60.093C53.84 61.723 53.633 63.531 53.551 65.348C53.426 68.003 52.626 68.696 49.963 68.819C44.273 69.087 38.872 68.223 33.855 65.356C29.426 62.826 26.001 59.252 23.017 55.21C17.201 47.327 12.747 38.674 8.747 29.773C7.846 27.768 8.505 26.695 10.714 26.654C14.39 26.581 18.065 26.591 21.736 26.65C23.232 26.673 24.221 27.529 24.794 28.939C26.779 33.824 29.215 38.472 32.265 42.782C33.078 43.929 33.908 45.074 35.088 45.885C36.392 46.781 37.386 46.486 38.001 45.031C38.394 44.103 38.564 43.117 38.648 42.125C38.94 38.729 38.975 35.333 38.471 31.95C38.156 29.834 36.964 28.467 34.854 28.067C33.78 27.863 33.937 27.465 34.459 26.852C35.365 25.79 36.219 25.134 37.915 25.134L50.636 25.132C52.642 25.524 53.088 26.424 53.361 28.443L53.373 42.576C53.352 43.358 53.764 45.674 55.168 46.186C56.291 46.557 57.036 45.656 57.708 44.942C60.756 41.707 62.928 37.886 64.875 33.933C65.732 32.19 66.475 30.384 67.195 28.577C67.728 27.24 68.562 26.582 70.07 26.606L82.316 26.619C82.676 26.619 83.045 26.623 83.402 26.682C85.464 27.037 86.029 27.925 85.392 29.939C84.388 33.102 82.433 35.738 80.521 38.38C78.478 41.205 76.297 43.937 74.269 46.776C72.411 49.38 72.561 50.688 74.869 52.943Z" fill="black"/>
</svg>
